X: 41
T: Something Doing
%%abc-version 2.0
%%abcx-abcm2ps-target-version 5.9.1 (29 Sep 2008)
%%abc-creator hum2abc beta
%%abcx-conversion-date 2021/07/20 09:00:57
%%abc-copyright Copyright 2001 by Craig Stuart Sapp
%%abc-edited-by Craig Stuart Sapp
%%abc-edited-by Craig Stuart Sapp
%%abcx-initial-encoding-date 2001
%%humdrum-veritas 1035745563
%%humdrum-veritas-data 734856371
%%removed 0's from note length
%%linebreak <none>
%%barnumbers 0
L: 1/8
M: 2/4
N: Derived from something.krn
Q: "Intro. Not fast." 1/4=100
%%staves {1 2}
V: 1 clef=treble
V: 2 clef=bass
K: F
[V:1] F/G/ [I:setbarnb 1]| 
[V:2] F,/G,/ | 
[V:1] A/fe/-e2 | 
[V:2] A,/FE/-E2 | 
[V:1] d/^c/d/B/-B2 | 
[V:2] D/^C/D/B,/-B,2 | 
[V:1] B/A/B/G/- G/A/B/=B/ | 
[V:2] B,/A,/B,/G,/- G,/F,/E,/D,/ | 
[V:1] c z !accent![c'gec] z ]|:  
[V:2] C, z !accent![C,C,,] z ]|:  
[V:1] A/c/f/a/- a/f/c/A/ | 
[V:2] [F,F,,][FCA,] C,[FCA,] | 
[V:1] [ec][dB][c2A2] | 
[V:2] C,2F,2 & C,[ECB,] F,[FCA,] | 
[V:1] [b/B/]e/g/[b/B/]- [b/B/][g/e/][=b/=B/][c'/c/]- | 
[V:2] [G,G,,][ECB,] [G,G,,][^G,^G,,] | 
[V:1] [c'/c/]c'/a/f/ d/_d/c/B/ | 
[V:2] [A,A,,][CC,] [B,B,,][A,A,,] | 
[V:1] A/c/f/a/- a/f/c/A/ | 
[V:2] [F,F,,][FCA,] C,[FCA,] | 
[V:1] [ec][dB] [cA][aA] | 
[V:2] C,2F,[^DCA,^F,] & C,[EC]x2 | 
[V:1] [g/G/]c/e/[a/^f/d/c/]- [a/f/d/c/][a/f/d/c/][=b=fd] | 
[V:2] [E2C2G,2][DD,][G,G,,] | 
[V:1] [c'2e2c2]-[c'ec] z | 
[V:2] [CC,][_B,_B,,] [A,A,,][G,G,,] | 
[V:1] A/c/f/a/- a/f/c/A/ | 
[V:2] [F,F,,][FCA,] C,[FCA,] | 
[V:1] [ec][dB][c2A2] | 
[V:2] C,[ECB,] F,[FCA,] | 
[V:1] [b/B/]e/g/[b/B/]- [b/B/][g/e/][=b/=B/][c'/c/]- | 
[V:2] [G,G,,][ECB,] [G,G,,][^G,^G,,] | 
[V:1] [c'/c/]c'/a/f/ d/_d/c | 
[V:2] [A,A,,][CC,] [B,B,,][A,A,,] | 
[V:1] [d/d'/]b/c'/[e'/e/]- [e'/e/]b/[d'd] | 
[V:2] [B,B,,][GDB,] [B,B,,][^G,^G,,] | 
[V:1] [c'/c/][a/f/][d'/d/][c'/c/]- [c'/c/]a/f/^F/ | 
[V:2] [A,A,,][FCA,] [FCA,] z | 
[V:1] G/c^F/ G/[gBG][=f/A/=F/]- |[1 
[V:2] C,[ECB,] E,[CB,G,] | 
[V:1] [f2A2F2]-[fAF] z :|][2 
[V:2] [C2A,2]-[CA,] z & F,!accent![C,C,,] !accent![D,D,,]!accent![E,E,,] :|]  
[V:1] [fAF]c/d/ e/f/g/a/ ]|: 
[V:2] [CA,F,] zz2 ]|:  
[V:1] [b/B/]e/g/[a/e/B/]- [a/e/B/]e/[gB] | 
[V:2] G,[ECB,] C,[ECB,] | 
[V:1] G/^F/G/d/- d/c/G/^G/ | 
[V:2] E,[ECB,] C,[ECB,] | 
[V:1] A/C/D/^D/ E/F/G/^G/ | 
[V:2] F,[CA,] C,[ECB,] | 
[V:1] A/^G/A/[g/c/A/]- [g/c/A/]g/=G/A/ | 
[V:2] F,[FCA,] C,[FCA,] | 
[V:1] z/ c'/b/g/ e/c'3/ & !accent!B4 | 
[V:2] G,[ECB,] C,[ECB,] | 
[V:1] B/A/B/[a/e/B/]- [a/e/B/]g/e/c/ | 
[V:2] G,[ECB,] C,[ECB,] | 
[V:1] z/ c'/a/f/ d/c3/ & !accent!A4 | 
[V:2] F,[FCA,] C,[FCA,] | 
[V:1] A/^G/A/[g/c/A/]- [g/c/A/]f/c/A/ | 
[V:2] F,[FCA,] C,[FCA,] | 
[V:1] d/^f/a/[d'/d/]- [d'/d/]c'/a/f/ | 
[V:2] ^F,[DCA,] D,[DCA,] | 
[V:1] d/^f/a/[d'/d/]- [d'/d/]c'/a/f/ | 
[V:2] ^F,[DCA,] D,[DCA,] | 
[V:1] d/^c/d/_e/ d/=c/B/A/ | 
[V:2] ^F,[DCA,] D,[DCA,] | 
[V:1] B/G/B/d/ g z | 
[V:2] G,[DB,] [DB,] z | 
[V:1] d/^c/d/a/- a/g/f/d/ | 
[V:2] [B,B,,][GFDB,] [B,B,,][=B,=B,,] | 
[V:1] A/^G/A/d/- d/c/F/^F/ | 
[V:2] [CC,][FCA,] C,[CA,] | 
[V:1] G/c^F/ G/[gBG][=f/A/=F/]- |[1 
[V:2] E,[ECB,] C,[ECB,] | 
[V:1] [fAF]c/d/ e/f/g/a/ :|][2 
[V:2] [CA,F,] zz2 :|]  
[V:1] [f2A2F2]-[fAF] z || 
[V:2] [C2A,2]-[CA,] z & F,[C,C,,] [D,D,,][E,E,,] ||  
[V:1] A/c/f/a/- a/f/c/A/ | 
[V:2] [F,F,,][FCA,] C,[FCA,] | 
[V:1] [ec][dB][c2A2] | 
[V:2] C,2F,2 & C,[ECB,] F,[FCA,] | 
[V:1] [b/B/]e/g/[b/B/]- [b/B/][g/e/][=b/=B/][c'/c/]- | 
[V:2] [G,G,,][ECB,] [G,G,,][^G,^G,,] | 
[V:1] [c'/c/]c'/a/f/ d/_d/c/B/ | 
[V:2] [A,A,,][CC,] [B,B,,][A,A,,] | 
[V:1] A/c/f/a/- a/f/c/A/ | 
[V:2] [F,F,,][FCA,] C,[FCA,] | 
[V:1] [ec][dB] [cA][aA] | 
[V:2] C,2F,[^DCA,^F,] & C,[EC]x2 | 
[V:1] [g/G/]c/e/[a/f/d/c/]- [a/f/d/c/][a/f/d/c/][=b=fd] | 
[V:2] [E2C2G,2][DD,][G,G,,] | 
[V:1] [c'2e2c2]-[c'ec] z | 
[V:2] [CC,][_B,_B,,] [A,A,,][G,G,,] | 
[V:1] A/c/f/a/- a/f/c/A/ | 
[V:2] [F,F,,][FCA,] C,[FCA,] | 
[V:1] [ec][dB][c2A2] | 
[V:2] C,[ECB,] F,[FCA,] | 
[V:1] [b/B/]e/g/[b/B/]- [b/B/][g/e/][=b/=B/][c'/c/]- | 
[V:2] [G,G,,][ECB,] [G,G,,][^G,^G,,] | 
[V:1] [c'/c/]c'/a/f/ d/_d/c | 
[V:2] [A,A,,][CC,] [B,B,,][A,A,,] | 
[V:1] [d'/d/]b/c'/[e'/e/]- [e'/e/]b/[d'd] | 
[V:2] [B,B,,][GDB,] [B,B,,][^G,^G,,] | 
[V:1] [c'/c/][a/f/][d'/d/][c'/c/]- [c'/c/]a/f/^F/ | 
[V:2] [A,A,,][FCA,] [FCA,] z | 
[V:1] G/c^F/ G/[gBG][=f/A/=F/]- | 
[V:2] C,[ECB,] E,[CB,E,] | 
[V:1] [f2A2F2][fAF] z ]|:  
[V:2] [C2A,2]-[CA,] z & F,!accent!C,!accent!F,, z ]|:  
[V:1]  [K:Bb] f/=e/f/g/- g/f/c/d/ | 
[V:2]  [K:Bb] B,,[DB,F,] F,,[DB,F,] | 
[V:1] e/d/e/A/-A2 | 
[V:2] C,[EA,F,] F,,[EA,F,] | 
[V:1] A/^G/A/d/- d/c/=G/A/ | 
[V:2] C,[ECF,] F,,[ECF,] | 
[V:1] B/A/B/G/- Gd | 
[V:2] B,,[DB,F,] F,,[DB,F,] | 
[V:1] cB G^G | 
[V:2] [B,B,,][DB,F,] [DD,][_D_D,] | 
[V:1] A/f/e/c/ Ae | 
[V:2] [CC,][EA,F,] F,,[EA,F,] | 
[V:1] dc GA | 
[V:2] C,[EA,F,] F,,[EA,F,] | 
[V:1] B/f/d/B/G2 | 
[V:2] B,,[DB,F,] F,,[DB,F,] | 
[V:1] f/=e/f/g/- g/f/c/d/ | 
[V:2] B,,[DB,F,] F,,[DB,F,] | 
[V:1] e/d/e/A/-A2 | 
[V:2] C,[EA,F,] F,,[EA,F,] | 
[V:1] A/^G/A/d/- d/c/=G/A/ | 
[V:2] C,[ECF,] F,,[ECF,] | 
[V:1] B/A/B/G/-G2 | 
[V:2] B,,[DB,F,] F,,[DB,F,] | 
[V:1] [eG][BG] [cB][^cB] | 
[V:2] [E,E,,][EB,G,] [G,G,,][_G,_G,,] | 
[V:1] d/^c/d/g/- g/f/d/B/ & B4 | 
[V:2] [F,F,,][DB,F,] F,,[DB,F,] | 
[V:1] G/^G/A/[f/A/]- [f/A/]=e/=G/A/ | 
[V:2] C,[EA,F,] F,,[EA,F,] | 
[V:1] B2-Bf | 
[V:2] B,,[DB,F,] [DB,F,] z :||:  
[V:1] [b/d/B/]B/c/^c/ d/ag/ | 
[V:2] [B,B,,][DB,F,] [DD,][_D_D,] | 
[V:1] fA/[ec]<- [ec][b/d/B/]- | 
[V:2] [CC,][EA,F,] F,,[EA,F,] | 
[V:1] [b/d/B/]B/c/^c/ d/ag/ | 
[V:2] [B,B,,][DB,F,] [DD,][_D_D,] | 
[V:1] fG/[ec]<- [ec][g/d/=B/G/]- | 
[V:2] [CC,][F,F,,] [A,A,,][_A,_A,,] | 
[V:1] [g/d/=B/G/]G/=B/d/ g/f[e/c/G/]- | 
[V:2] [G,G,,][FD=B,G,] =B,,[FDG,] | 
[V:1] [ecG][d=BGF][c2G2E2] | 
[V:2] [C,C,,][D,D,,] [E,E,,][CG,E,] | 
[V:1] [dB=E][cBE] [dB][cB] | 
[V:2] [C,C,,][CB,G,] [=E,=E,,][CB,G,] | 
[V:1] [g_eA][feA] [d'ae][c'ae] | 
[V:2] [F,F,,][_ECF,] F,,[EA,F,] | 
[V:1] [b/d/]B/c/^c/ d/ag/ | 
[V:2] B,,[DB,F,] [DD,][_D_D,] | 
[V:1] fA/[ec]<- [ec][b/d/B/]- | 
[V:2] [CC,][EA,F,] F,,[EA,F,] | 
[V:1] [b/d/B/]B/c/^c/ d/ag/ | 
[V:2] [B,B,,][DB,F,] [DD,][_D_D,] | 
[V:1] fA/[ec]<- [ec][g/d/=B/G/]- | 
[V:2] [CC,][F,F,,] [G,G,,][_A,_A,,] | 
[V:1] [g/d/B/G/]G/=B/d/ g/f[e/c/G/]- | 
[V:2] [G,G,,][FD=B,G,] =B,,[FDG,] | 
[V:1] [ecG][d=BGF] [cGE][g^cB] | 
[V:2] [C,C,,][D,D,,] [E,E,,][=E,=E,,] | 
[V:1] [f/d/B/]F/G/^G/ A/f/=G/A/ |[1 
[V:2] [F,F,,][DB,F,] F,,[EA,F,] | 
[V:1] B2-Bf :|][2 
[V:2] B,,[DB,F,] [DB,F,] z :|]  
[V:1] B2[bdB] |]  
[V:2] D2[B,,B,,,] & [DB,][F,F,,]x |]  


